X:3
T:Allemande
B:Suite d'Habiemont
O:Wallonie
M:6/8
L:1/8
Q:C4=92
K:G
D |: G2 G F2 G | B2 G D2 B | A2 d D2 d | c3 B z D |
G2 G F2 G | B2 G D2 B | A2 F DEF |1 A3 G z D :|2 A3 G z d |
|: c2 B A2 c | B2 A G2 B | A2 F DEF | G2 B d z d |
c2 B A2 c | B2 A G2 B | A2 F DEF |1 A3 G z d :|2 A3 G2 ||
